svgs/whatsapp_business.svg

<svg width="24" height="24" viewBox="0 0 24 24" fill="none" xmlns="http://www.w3.org/2000/svg">
<path d="M13.1891 10.7133C12.5502 10.9028 12.048 10.8995 11.2005 10.8939C10.8859 10.8918 10.5236 10.8895 10.0893 10.8965V8.10235C10.1404 8.09983 10.1965 8.0969 10.2568 8.09375C11.0653 8.05154 12.6355 7.96954 13.1925 8.29896C14.0541 8.80852 13.7911 10.3087 13.1891 10.7133Z" fill="#FFF1C0"/>
<path d="M12.2567 15.9973C11.4423 15.9988 10.4921 15.9988 10.0893 15.9988V12.9528C10.9598 12.9528 11.83 12.9528 12.5907 12.9442C13.3893 13.0381 13.9648 13.374 13.9798 14.398C14.0003 15.485 13.179 15.9956 12.2567 15.9973Z" fill="#FFF1C0"/>
<path fill-rule="evenodd" clip-rule="evenodd" d="M11.996 22C9.85531 21.999 8.23674 21.3962 6.54123 20.39L2.75569 21.3821L3.76631 17.693C2.65857 15.9303 1.99898 14.2455 2 11.9954C2.00202 6.48399 6.48863 2 12.004 2C17.5336 2.00202 22.0021 6.47995 22 12.0035C21.997 17.516 17.5074 22 11.996 22ZM8.8213 17.9999C8.47069 18.0004 8.31783 18.0004 8.24342 17.9472L8.23397 17.9405C8.11887 17.8587 8.00954 17.7809 8.00977 17.3404L8.01087 15.6798C8.01271 13.1538 8.01534 9.55606 8.00953 8.03296C8.00899 7.89008 8.00666 7.75319 8.00443 7.62299C7.98789 6.65518 7.9776 6.05308 8.75844 6.05296C9.11939 6.05275 9.50551 6.04044 9.90376 6.02775C12.1473 5.95621 14.7764 5.87238 15.4677 7.87024C16.1395 9.81172 15.3767 10.9353 14.9145 11.616C14.8103 11.7694 14.7214 11.9004 14.6677 12.0131C16.6623 12.6764 16.7745 17.993 12.5084 17.993C12.0474 17.993 11.4922 17.9944 10.8642 17.996L10.8609 17.996C10.2443 17.9975 9.55762 17.9992 8.8213 17.9999Z" fill="#FFF1C0"/>
</svg>

<svg xmlns="http://www.w3.org/2000/svg" width="24" height="24" fill="none" viewBox="0 0 24 24"><path fill="#FFF1C0" d="M13.19 10.713c-.64.19-1.142.187-1.99.18a46.363 46.363 0 0 0-1.11.003V8.102l.167-.008c.808-.042 2.379-.124 2.936.205.861.51.598 2.01-.004 2.414m-.932 5.284c-.815.002-1.765.002-2.168.002v-3.046c.87 0 1.741 0 2.502-.009.798.094 1.374.43 1.389 1.454.02 1.087-.801 1.598-1.723 1.6"/><path fill="#FFF1C0" fill-rule="evenodd" d="M11.996 22c-2.14-.001-3.76-.604-5.455-1.61l-3.785.992 1.01-3.689C2.66 15.93 2 14.245 2 11.995 2.002 6.484 6.489 2 12.004 2A9.995 9.995 0 0 1 22 12.004C21.997 17.516 17.507 22 11.996 22m-3.175-4c-.35 0-.503 0-.578-.053l-.009-.006c-.115-.082-.224-.16-.224-.6V15.68c.003-2.526.005-6.124 0-7.647-.001-.143-.003-.28-.006-.41-.016-.968-.026-1.57.754-1.57.361 0 .748-.013 1.146-.025 2.243-.072 4.872-.156 5.564 1.842.672 1.942-.091 3.065-.553 3.746a3.375 3.375 0 0 0-.247.397c1.994.663 2.107 5.98-2.16 5.98l-1.644.003h-.003L8.82 18" clip-rule="evenodd"/></svg>
